X:1
T:Arrival of the Birds - Woodwind Trio
T:Arrival of the Birds - Woodwind Trio
%%score 1 2 3
L:1/8
Q:1/4=135
M:3/4
K:Gb
V:1 treble nm="Flute" snm="Fl."
V:2 treble nm="Flute" snm="Fl."
V:3 treble nm="Flute" snm="Fl."
V:1
 z6 | z2 z4 | z6 | z6 | z6 | z6 | z6 | z6 | z6 | z6 | z6 | z6 | z6 | z6 | z6 |!p! (fg) b2 b2 | z6 | %17
 z6 | z6 | z6 | (ge ge ge) | (gd gd gd) | (gf) g2 g2 | (gf) g2 g2 | (gd gd gd) | (gf gd gd) | %26
 (ge ge ge) | (ge ge ge) |!<(! (gf gf gf)!<)! | G(F GB GF) | G(f gb gf) | (fg) b2 b2 | (ge gb ge) | %33
 (ge gb ge) | (ae ac' ae) | (ae ac' ae) | (de gb ge) | (ge gb ge) |!<(! (ce ce ce) | %39
 (df df df)!<)! |!mf! f3 g3 | b3 f3 | e6- | e6 | f3 g3 | b3 f ef | e6- | e6 | f4 b2 | d'6 | %50
 c'4 b2 | f6 | f3 g3 | b3 f ef | e6- | e6- | e6- | e6 | (cf gb gf) | (df gb gf) | (ef gb gf) | %61
 (ef gb gf) | (ga bd' ba) | (ga bd' ba) | (ga be' ba) | (ga be' ba) | (cf gb gf) | (df gb gf) | %68
 (ef gb gf) | (ef gb gf) | (ga bd' ba) | (ga bd' ba) | (cd eg ed) | (cd eg ed) | (cd ea ed) | %75
!>(! (cd ea ed) | (cd ea ed)!>)! |!mp! g6 | f6 | e6- | e6 | d6 | c6 | B6- | B6 | G2 E2 G2 | %86
 E2 G2 E2 |!>(! G2 E2 G2 | E2 G2 E2 | G2 E2 G2 | E2 G2 E2!>)! || z6 | z6 | z6 | z6 | z4 .g(f | %96
 .g2) (f .g2) (f | .g2) (f .g2) (f | .g2) (f .g2) (f | .g2) (f .g2) (f | .g2) (f .g2) (f | %101
 .g2) (f .g2) (f | .g2) (f .g2) (f | .g2)[Q:1/4=130] (f .g2) (f | %104
[Q:1/4=127] .g2) (f[Q:1/4=125] .g2)[Q:1/4=110] f | !fermata!e6 |] %106
V:2
 z6 | z2 z4 | z6 |!p! (fg) b2 b2 | z6 | z6 | z6 | (fg) b2 b2 | z6 | z6 | z6 | (fg) b2 b2 | z6 | %13
 z6 | z6 | (FG) B2 B2 | g6 | f6 | e6- | e6 | g6 | f6 | e6- | e6 | G6- | G6 | F6- | F6 | %28
!<(! B6!<)! | d6 | e6 | d6 | E6 | G6 | A6- | A6 | B6- | B6 |!<(! c6 | d6!<)! |!mf! (BE Be BE) | %41
 (dB dB dB) | (Ac ea ec) | (EF BG FE) | (BE Be BE) | (dB dB dB) | (Ac ea ec) | (EF BG FE) | %48
 (BG BG BG) | (dB df dB) | (cB ce cG) | (cB ce cG) | (BE Be BE) | (dB dB dB) | (AB ca cB) | %55
 (cB ce cB) | (cB ce cB) | (cB cA) G2 | C6 | D6 | E6- | E4 F2 | B6 | d6 | e6- | e6 | C6 | D6 | %68
 E6- | E4 F2 | B6 | d6 | e6- | e6- | e6- |!>(! e6- | e6!>)! |!mp! B6 | A6 | G6- | G6 | g2 e2 g2 | %82
 e2 g2 e2 | g2 e2 g2 | e2 g2 e2 | G6 | F6 |!>(! E6- | E6- | E6- | E6!>)! ||!p! G6 | F6 | E6- | E6 | %95
 G6 | F6 | E6- | E6 | G6 | F6 | E6- | E6 | E6- | E6 | !fermata!E6 |] %106
V:3
!ppp!!<(! (ge ge!pp! ge)!<)! | (ge!p! ge ge) | (ge ge ge) | (fg) b2 b2 | (ge ge ge) | (ge ge ge) | %6
 (ge ge ge) | (fg) b2 b2 | (ge ge ge) | (ge ge ge) | (ge ge ge) | (fg) b2 b2 | (ge ge ge) | %13
 (ge ge ge) | (ge ge ge) | (fg) b2 b2 | (ef gb gf) | (df gb gf) | (cf gb gf) | (cf gb gf) | %20
 (ef gb gf) | (df gb gf) | (cf gb gf) | (cf gb gf) | G(f gb gf) | G(f gb gf) | A(f gb gf) | %27
 A(f gb gf) |!<(! B(F GB GF)!<)! | (GF GF GF) | G(F GB GF) | (GE GE GE) | (GE GE GE) | (GE GE GE) | %34
 (AE AE AE) | (AE AE AE) | (GE GE GE) | (GE GE GE) |!<(! (GE GE GE) | (AF AF AF)!<)! |!mf! E6 | %41
 G6 | c6- | c6 | E6 | G6 | c6- | c6 | B4 g2 | b6 | c6- | c6 | E6 | G6 | A6- | A6- | A6- | A6 | E6 | %59
 F6 | G6- | G4 D2 | G6 | B6 | c6- | c6 | E6 | F6 | G6- | G4 D2 | G6 | B6 | g6- | g6- | g6- | %75
!>(! g6- | g6!>)! |!mp! g2 e2 g2 | e2 g2 e2 | g2 e2 g2 | e2 g2 e2 | G6 | F6 | E6- | E6 | E6 | D6 | %87
!>(! C6- | C6- | C6- | C6!>)! ||!p! (ef gb gf) | (df gb gf) | (cf gb gf) | (cf gb gf) | %95
 (ef gb gf) | (df gb gf) | (cf gb gf) | (cf gb gf) | (ef gb gf) | (df gb gf) | (cf gb gf) | %102
 (cf gb gf) | (cf gb gf) | (cf gb gf) | !fermata!e6 |] %106

